X:1
T:All Time High
T:All Time High
C:John Barry
Z:All Rights Reserved
L:1/4
M:4/4
K:E
V:1 treble nm="Piano" snm="Pno."
%%MIDI program 0
%%MIDI control 7 100
%%MIDI control 10 64
V:1
"E" B B/B/- B/A/G/A/ |"G#m" B B/B/- B/B/c/d/ |"C#m" d e/G/- G z |"C#m/G#" z B B B | %4
w: All I want- * ed was a|sweet dis- trac- * ion for a|hour or two. _|Had no in-|
"A" B/ A G/ A z | z z/ E/ E F |"G#" G2 z2 | z4 |"E" B/ B B/- B/A/G/A/ |"G#m" B B/B/- B/B/c/d/ | %10
w: ten- tion to do|the things we've|done.||Fun- ny how _ it al- ways|goes with love, _ when yu don't|
"C#m" d z/ e/ G z |"C#m/G#" z B B B |"A" (3B A G A z | z z/ e/ e f |"G#" d3 z || %15
w: look, you find.|But then we're|two of a kind,|we move as|one.|
[K:Db]"Ab7" z e/e/ f g |"Db""Db/C" a4- |"Db/Bb" a a"Db/F" (3a g f |"Gb" f g/(e/- e d) | %19
w: We're an all time|high,|_ we'll change all that's|gone be- fore. _ _|
 z d/d/ e/ f b/- |"Ebm""Ebm/Bb" b4- |"Ebm/C" b b"Ebm/Bb" (3b a g |"Ab7" a4- | a e/e/ f g | %24
w: Do- ing so much more|_|* than fall- ing in|love.|_ On an all time|
"Db""Db/C" a4- |"Db/Bb" a a"Db/F" (3a g f |"Gb" f B e2 | z z/ d/ d e |"Ebm9" f2 (3z e f | B2 z G | %30
w: high,|_ we'll take on the|world and wait.|So hold on|tight, let the|flight be-|
"Cb9" (d4 ||[K:E]"B7" B2) z2 |"E" B B/B/- B/A/G/A/ |"G#m" B B/B/- B/B/c/d/ |"C#m" d e/G/- G z | %35
w: gin.|_|I don't want _ to waste a|wak- ing mo- * ment; I don't|want to sleep _|
"C#m/G#" z B B B |"A" B/ A G/ A z | z z/ E/ E F |"G#" G2 z2 | z4 |"E" B/ B B/- B/A/G/A/ | %41
w: I'm in so|strong and so deep.|and so are|you.||In my time _ I've said these|
"G#m" B B/B/- B/B/c/d/ |"C#m" d z/ e/ G z |"C#m/G#" z B B B |"A" (3B A G A z | z z/ e/ e f | %46
w: words be- fore, _ but now I|re- a- lize|my heart was|tell- ing me lies,|for you they're|
"G#" d3 z ||[K:Db]"Ab7" z e/e/ f g |"Db""Db/C" a4- |"Db/Bb" a a"Db/F" (3a g f |"Gb" f g/e/- e d | %51
w: true.|We're and all time|high,|_ we'll change all that's|gone be- fore. _ _|
 z d/d/ e/ f b/- |"Ebm""Ebm/Bb" b4- |"Ebm/C" b b"Ebm/Bb" (3b a g |"Ab7" a4- | a e/e/ f g | %56
w: Do- ing so much more|_|* than fall- ing in|love.|_ On an all time|
"Db""Db/C" a4- |"Db/Bb" a a"Db/F" (3a g f |"Gb" f B e2 | z z/ d/ d e |"Ebm9" f2 (3z e f | B2 z G | %62
w: high,|_ we'll take on the|world and wait.|So hold on|tight let the|flight be-|
"Cb9" d4- | d3/2 d/ d e |"Ebm" f2 (3z e f | B2 z G |"Cb" d4- | d g/e/ _c' g |"Db" a4- | a4- | a4- | %71
w: gin.|_ so hold on|tight let the|flight be-|gin.|_ We're and all time|high.|_||
 a4 |] %72
w: |

